dist/img/svg/cafe.svg

<svg width="65" height="65" viewBox="0 0 65 65" fill="none" xmlns="http://www.w3.org/2000/svg">
<path d="M60.5566 0H36.9434C34.4933 0 32.5 1.99329 32.5 4.44336V31.6567C33.4396 31.9307 34.3656 32.2585 35.2749 32.6432C38.2988 33.9223 41.0139 35.7524 43.3445 38.083C45.6751 40.4136 47.5052 43.1286 48.7843 46.1525C49.8071 48.5709 50.439 51.1045 50.6747 53.7102C52.916 54.2377 54.5898 56.2525 54.5898 58.6523V59.9219C54.5898 61.809 53.9967 63.5593 52.9897 65H60.5566C63.0067 65 65 63.0067 65 60.5566V4.44336C65 1.99329 63.0067 0 60.5566 0ZM55.9229 20.8203C56.9745 20.8203 57.8271 21.6729 57.8271 22.7246C57.8271 23.7763 56.9745 24.6289 55.9229 24.6289H41.5771C40.5255 24.6289 39.6729 23.7763 39.6729 22.7246C39.6729 21.6729 40.5255 20.8203 41.5771 20.8203H55.9229ZM44.4971 11.2988C44.4971 10.2471 45.3497 9.39453 46.4014 9.39453H51.0986C52.1503 9.39453 53.0029 10.2471 53.0029 11.2988C53.0029 12.3505 52.1503 13.2031 51.0986 13.2031H46.4014C45.3497 13.2031 44.4971 12.3505 44.4971 11.2988ZM41.5771 32.2461C40.5255 32.2461 39.6729 31.3935 39.6729 30.3418C39.6729 29.2901 40.5255 28.4375 41.5771 28.4375H55.9229C56.9745 28.4375 57.8271 29.2901 57.8271 30.3418C57.8271 31.3935 56.9745 32.2461 55.9229 32.2461H41.5771Z" fill="#FF4CA6"/>
<path d="M23.4863 34.5395C13.2735 35.4325 5.10098 43.4376 3.94926 53.5742H46.832C45.6803 43.4376 37.5078 35.4325 27.2949 34.5395V30.4451H28.7162C29.7678 30.4451 30.6205 29.5925 30.6205 28.5408C30.6205 27.4892 29.7678 26.6365 28.7162 26.6365H22.065C21.0133 26.6365 20.1607 27.4892 20.1607 28.5408C20.1607 29.5925 21.0133 30.4451 22.065 30.4451H23.4863V34.5395ZM17.6264 44.697C16.1784 45.7161 14.972 47.0775 14.1379 48.6343C13.7946 49.2751 13.137 49.6396 12.4578 49.6396C12.1541 49.6396 11.8464 49.5668 11.56 49.4135C10.633 48.9167 10.2842 47.7626 10.7809 46.8355C11.8941 44.758 13.5034 42.9415 15.4348 41.5824C16.2944 40.977 17.4827 41.1836 18.088 42.0438C18.6931 42.9038 18.4865 44.0917 17.6264 44.697ZM24.1211 42.6425C23.7072 42.6425 23.2903 42.6651 22.882 42.7097C22.8117 42.7174 22.7419 42.7211 22.6729 42.7211C21.7139 42.7211 20.8887 41.9986 20.7822 41.0234C20.6681 39.9779 21.423 39.0377 22.4684 38.9236C23.0136 38.864 23.5696 38.8338 24.1211 38.8338C25.1728 38.8338 26.0254 39.6864 26.0254 40.7381C26.0254 41.7898 25.1728 42.6425 24.1211 42.6425Z" fill="#FF4CA6"/>
<path d="M50.7812 59.9219V58.6523C50.7812 57.9512 50.2129 57.3828 49.5117 57.3828H1.26953C0.568369 57.3828 0 57.9512 0 58.6523V59.9219C0 62.7264 2.2736 65 5.07812 65H45.7031C48.5076 65 50.7812 62.7264 50.7812 59.9219Z" fill="#FF4CA6"/>
</svg>

<svg width="65" height="65" fill="none" xmlns="http://www.w3.org/2000/svg"><path d="M60.557 0H36.943A4.448 4.448 0 0032.5 4.443v27.214a25.303 25.303 0 0110.844 6.426 25.303 25.303 0 017.33 15.627 5.086 5.086 0 013.916 4.942v1.27A8.835 8.835 0 0152.99 65h7.567A4.448 4.448 0 0065 60.557V4.443A4.448 4.448 0 0060.557 0zm-4.634 20.82a1.904 1.904 0 010 3.809H41.577a1.904 1.904 0 010-3.809h14.346zM44.497 11.3c0-1.052.853-1.904 1.904-1.904H51.1a1.904 1.904 0 110 3.808h-4.7a1.904 1.904 0 01-1.904-1.904zm-2.92 20.947a1.904 1.904 0 010-3.809h14.346a1.904 1.904 0 010 3.81H41.577z" fill="#FF4CA6"/><path d="M23.486 34.54c-10.213.892-18.385 8.898-19.537 19.034h42.883C45.68 43.438 37.508 35.432 27.295 34.54v-4.094h1.421a1.904 1.904 0 000-3.808h-6.651a1.904 1.904 0 000 3.808h1.421v4.094zm-5.86 10.157a11.456 11.456 0 00-3.488 3.937 1.904 1.904 0 11-3.357-1.798 15.283 15.283 0 014.654-5.254 1.904 1.904 0 112.191 3.115zm6.495-2.055c-.414 0-.83.023-1.239.068a1.905 1.905 0 01-.414-3.786 15.19 15.19 0 011.653-.09 1.904 1.904 0 010 3.808zm26.66 17.28v-1.27a1.27 1.27 0 00-1.27-1.27H1.27A1.27 1.27 0 000 58.653v1.27A5.078 5.078 0 005.078 65h40.625a5.078 5.078 0 005.078-5.078z" fill="#FF4CA6"/></svg>
